static/characters/takenoko/back-sitting.svg

<svg xmlns="http://www.w3.org/2000/svg" width="32" height="193"><g transform="translate(.5 .5)"><linearGradient id="a" gradientUnits="userSpaceOnUse" gradientTransform="matrix(-.00107 -.00317 .00746 -.0025 14 9.2)" spreadMethod="pad" x1="-819.2" y1="0" x2="819.2" y2="0"><stop offset="0" stop-color="#9fc030"/><stop offset="1" stop-color="#dce470"/></linearGradient><path d="M13.8 13.45l-2.55-10.2 1.9 2.95-.6-5.65 2.9 7.95.6 1.75.7 2.4-2.95.8" fill="url(#a)"/><linearGradient id="b" gradientUnits="userSpaceOnUse" gradientTransform="matrix(.0018 0 0 .00632 13 18.9)" spreadMethod="pad" x1="-819.2" y1="0" x2="819.2" y2="0"><stop offset="0" stop-color="#8c6813"/><stop offset=".886" stop-color="#d5bb53"/><stop offset="1" stop-color="#7de813"/></linearGradient><path d="M11.55 24.1q1.15-5.85 2.35-10.35l.6 1.5V20l-2.95 4.1" fill="url(#b)"/><linearGradient id="c" gradientUnits="userSpaceOnUse" gradientTransform="matrix(-.0019 -.00653 .00632 -.00185 16.5 18.05)" spreadMethod="pad" x1="-819.2" y1="0" x2="819.2" y2="0"><stop offset="0" stop-color="#8c6813"/><stop offset=".886" stop-color="#d5bb53"/><stop offset="1" stop-color="#7de813"/></linearGradient><path d="M16.75 12.65q1.25 4.65 2.5 10.8L16.5 20.5l-1.85-5.3-.15-.45v.5l-.6-1.5-.1-.3 2.95-.8" fill="url(#c)"/><linearGradient id="d" gradientUnits="userSpaceOnUse" gradientTransform="matrix(.00035 -.00545 .00903 .00056 16 23)" spreadMethod="pad" x1="-819.2" y1="0" x2="819.2" y2="0"><stop offset="0" stop-color="#8c6813"/><stop offset=".886" stop-color="#bc9f2e"/><stop offset="1" stop-color="#6a550b"/></linearGradient><path d="M19.25 23.45l.05.35 1.15 6.25-8.95-5.75.05-.2L14.5 20v-4.75l.15-.05 1.85 5.3 2.75 2.95" fill="url(#d)"/><linearGradient id="e" gradientUnits="userSpaceOnUse" gradientTransform="matrix(-.00406 -.00618 .00629 -.00414 15.05 49.15)" spreadMethod="pad" x1="-819.2" y1="0" x2="819.2" y2="0"><stop offset="0" stop-color="#8c6813"/><stop offset=".886" stop-color="#bc9f2e"/><stop offset="1" stop-color="#6a550b"/></linearGradient><path d="M15.25 56.5l-8.45.65.8-6.55 2.65.65 3-3-1.35-3.45 2.35 1.2 8.6.7.4 2.9-8 6.9" fill="url(#e)"/><linearGradient id="f" gradientUnits="userSpaceOnUse" gradientTransform="matrix(-.00368 -.0091 .0082 -.00331 14.25 42.4)" spreadMethod="pad" x1="-819.2" y1="0" x2="819.2" y2="0"><stop offset="0" stop-color="#8c6813"/><stop offset=".886" stop-color="#bc9f2e"/><stop offset="1" stop-color="#6a550b"/></linearGradient><path d="M7.6 50.6l.9-7.1 3-3.25.25-3.5 1.75 2.75 8.8 3.05.55 4.15-8.6-.7-2.35-1.2 1.35 3.45-3 3-2.65-.65" fill="url(#f)"/><linearGradient id="g" gradientUnits="userSpaceOnUse" gradientTransform="matrix(.00055 -.0095 .00697 .0004 15.05 30)" spreadMethod="pad" x1="-819.2" y1="0" x2="819.2" y2="0"><stop offset="0" stop-color="#8c6813"/><stop offset=".886" stop-color="#bfb82b"/><stop offset="1" stop-color="#6a550b"/></linearGradient><path d="M9.6 35.75q.9-6.25 1.9-11.45l8.95 5.75.05.55-2 2.9-8.9 2.25" fill="url(#g)"/><linearGradient id="h" gradientUnits="userSpaceOnUse" gradientTransform="matrix(-.00197 -.0049 .0073 -.00293 15.4 37.05)" spreadMethod="pad" x1="-819.2" y1="0" x2="819.2" y2="0"><stop offset="0" stop-color="#8c6813"/><stop offset=".886" stop-color="#bc9f2e"/><stop offset="1" stop-color="#6a550b"/></linearGradient><path d="M8.5 43.5l1.1-7.75 8.9-2.25 2-2.9 1.8 11.95-8.8-3.05-1.75-2.75-.25 3.5-3 3.25" fill="url(#h)"/><linearGradient id="i" gradientUnits="userSpaceOnUse" gradientTransform="matrix(.0009 -.00984 .0113 .00105 17.15 58)" spreadMethod="pad" x1="-819.2" y1="0" x2="819.2" y2="0"><stop offset="0" stop-color="#8c6813"/><stop offset=".886" stop-color="#bc9f2e"/><stop offset="1" stop-color="#6a550b"/></linearGradient><path d="M6.55 59.7v-.25l.25-2.3 8.45-.65 8-6.9 1.1 9.85.9 8.8-13.25-5-5.45-3.55" fill="url(#i)"/><linearGradient id="j" gradientUnits="userSpaceOnUse" gradientTransform="matrix(-.00409 -.01697 .0122 -.00293 15.65 70.2)" spreadMethod="pad" x1="-819.2" y1="0" x2="819.2" y2="0"><stop offset="0" stop-color="#8c6813"/><stop offset=".886" stop-color="#bc9f2e"/><stop offset="1" stop-color="#6a550b"/></linearGradient><path d="M21.25 74.75V70l-2.75 3.5-13.65 3.25 1.7-17.05L12 63.25l13.25 5 1.1 12.05-5.1-5.55" fill="url(#j)"/><linearGradient id="k" gradientUnits="userSpaceOnUse" gradientTransform="matrix(.01541 0 0 .01495 15.1 97.1)" spreadMethod="pad" x1="-819.2" y1="0" x2="819.2" y2="0"><stop offset="0" stop-color="#8c6813"/><stop offset=".886" stop-color="#bfb82b"/><stop offset="1" stop-color="#6a550b"/></linearGradient><path d="M2.5 109.35q.45-8.3 1.05-16.15l5.9-3.4-1.8-4.95L11.5 88l15.7 3.1.55 7.3L2.5 109.35" fill="url(#k)"/><linearGradient id="l" gradientUnits="userSpaceOnUse" gradientTransform="matrix(.01443 0 0 .01416 15.35 81.6)" spreadMethod="pad" x1="-819.2" y1="0" x2="819.2" y2="0"><stop offset="0" stop-color="#8c6813"/><stop offset=".886" stop-color="#bfb82b"/><stop offset="1" stop-color="#6a550b"/></linearGradient><path d="M26.35 80.3l.85 10.8L11.5 88l-3.85-3.15 1.8 4.95-5.9 3.4 1.3-16.45L18.5 73.5l2.75-3.5v4.75l5.1 5.55" fill="url(#l)"/><linearGradient id="m" gradientUnits="userSpaceOnUse" gradientTransform="matrix(.01782 0 0 .02509 15.75 135.85)" spreadMethod="pad" x1="-819.2" y1="0" x2="819.2" y2="0"><stop offset="0" stop-color="#8c6813"/><stop offset=".886" stop-color="#9abf2b"/><stop offset="1" stop-color="#6a550b"/></linearGradient><path d="M1.15 137.8l.3-7.05.7-15.45 27.4 17.4.8 23.7-29.2-18.6" fill="url(#m)"/><linearGradient id="n" gradientUnits="userSpaceOnUse" gradientTransform="matrix(.01672 0 0 .02094 15.85 115.55)" spreadMethod="pad" x1="-819.2" y1="0" x2="819.2" y2="0"><stop offset="0" stop-color="#8c6813"/><stop offset=".886" stop-color="#bfb82b"/><stop offset="1" stop-color="#6a550b"/></linearGradient><path d="M27.75 98.4l1.75 32.35.05 1.95-27.4-17.4.35-5.95L27.75 98.4" fill="url(#n)"/><linearGradient id="o" gradientUnits="userSpaceOnUse" gradientTransform="matrix(.0185 0 0 .02527 15.65 158.5)" spreadMethod="pad" x1="-819.2" y1="0" x2="819.2" y2="0"><stop offset="0" stop-color="#8c6813"/><stop offset=".886" stop-color="#9abf2b"/><stop offset="1" stop-color="#6a550b"/></linearGradient><path d="M30.35 156.4l.25 10.35.1 4.75.1 7.7-12.2-7.7-7.45-4.75-10.65-6.9q.25-11.3.65-22.05l29.2 18.6" fill="url(#o)"/><linearGradient id="p" gradientUnits="userSpaceOnUse" gradientTransform="matrix(.01886 0 0 .01947 15.45 175.8)" spreadMethod="pad" x1="-819.2" y1="0" x2="819.2" y2="0"><stop offset="0" stop-color="#8c6813"/><stop offset=".886" stop-color="#9abf2b"/><stop offset="1" stop-color="#6a550b"/></linearGradient><path d="M11.15 166.75l7.45 4.75 12.2 7.7.1 12.55H0q.05-10.3.25-20.25l.1-4.75.15-6.9 10.65 6.9" fill="url(#p)"/><path d="M12.55.55l2.9 7.95v-.1l.6 1.85.7 2.4q1.25 4.65 2.5 10.8l.05.35 1.15 6.25.3.2-.25.35 1.8 11.95.55 4.15.4 2.9 1.1 9.85.9 8.8 1.1 12.05.85 10.8.55 7.3 1.75 32.35.05 1.95.8 23.7.25 10.35.1 4.75.1 7.7.1 12.55H0q.05-10.3.25-20.25l.1-4.75.15-6.9q.25-11.3.65-22.05l.3-7.05.7-15.45.35-5.95q.45-8.3 1.05-16.15l1.3-16.45 1.7-17.05v-.25l.25-2.3.8-6.55.9-7.1 1.1-7.75q.9-6.25 1.9-11.45l-.05-.05.1-.15q1.15-5.85 2.35-10.35l-.1-.3-2.55-10.2 1.9 2.95-.6-5.65L12.5 0m3.55 10.25l-.6-1.75m-2.3-2.3L14 7.5m.65 7.7l-.15-.45v.5l-.6-1.5m.6 1.5V20l-2.95 4.1-.05.2 8.95 5.75.05.55-2 2.9-8.9 2.25m5.05-20.55l1.85 5.3 2.75 2.95m-5.45-10l2.95-.8m5.55 29.9l-8.8-3.05-1.75-2.75-.25 3.5-3 3.25m14.35 3.2l-8.6-.7-2.35-1.2 1.35 3.45-3 3-2.65-.65m-.8 6.55l8.45-.65 8-6.9m2 18.65l-13.25-5-5.45-3.55M27.2 91.1L11.5 88l-3.85-3.15 1.8 4.95-5.9 3.4m1.3-16.45L18.5 73.5l2.75-3.5v4.75l5.1 5.55m3.2 52.4l-27.4-17.4m28.65 63.9l-12.2-7.7-7.45-4.75-10.65-6.9m.65-22.05l29.2 18.6M2.5 109.35L27.75 98.4" fill="none" stroke-linecap="round" stroke-linejoin="round" stroke-miterlimit="3" stroke="#585429"/></g></svg>

<?xml version="1.0" encoding="utf-8"?>
<svg version="1.1" id="Layer_1"
xmlns="http://www.w3.org/2000/svg"
xmlns:xlink="http://www.w3.org/1999/xlink"
xmlns:author="http://www.sothink.com"
width="32px" height="193px"
xml:space="preserve">
<g id="494" transform="matrix(1, 0, 0, 1, 0.5, 0.5)">
<linearGradient
id="LinearGradID_1939" gradientUnits="userSpaceOnUse" gradientTransform="matrix(-0.00106812, -0.00317383, 0.00746155, -0.00250244, 14, 9.2)" spreadMethod ="pad" x1="-819.2" y1="0" x2="819.2" y2="0" >
<stop  offset="0" style="stop-color:#9FC030;stop-opacity:1" />
<stop  offset="1" style="stop-color:#DCE470;stop-opacity:1" />
</linearGradient>
<path style="fill:url(#LinearGradID_1939) " d="M13.8,13.45L11.25 3.25L13.15 6.2L12.55 0.55L15.45 8.5L16.05 10.25L16.75 12.65L13.8 13.45" />
<linearGradient
id="LinearGradID_1940" gradientUnits="userSpaceOnUse" gradientTransform="matrix(0.00180054, 0, 0, 0.00631714, 13, 18.9)" spreadMethod ="pad" x1="-819.2" y1="0" x2="819.2" y2="0" >
<stop  offset="0" style="stop-color:#8C6813;stop-opacity:1" />
<stop  offset="0.886275" style="stop-color:#D5BB53;stop-opacity:1" />
<stop  offset="1" style="stop-color:#7DE813;stop-opacity:1" />
</linearGradient>
<path style="fill:url(#LinearGradID_1940) " d="M11.55,24.1Q12.7 18.25 13.9 13.75L14.5 15.25L14.5 20L11.55 24.1" />
<linearGradient
id="LinearGradID_1941" gradientUnits="userSpaceOnUse" gradientTransform="matrix(-0.00190735, -0.00653076, 0.00631714, -0.00184631, 16.5, 18.05)" spreadMethod ="pad" x1="-819.2" y1="0" x2="819.2" y2="0" >
<stop  offset="0" style="stop-color:#8C6813;stop-opacity:1" />
<stop  offset="0.886275" style="stop-color:#D5BB53;stop-opacity:1" />
<stop  offset="1" style="stop-color:#7DE813;stop-opacity:1" />
</linearGradient>
<path style="fill:url(#LinearGradID_1941) " d="M16.75,12.65Q18 17.3 19.25 23.45L16.5 20.5L14.65 15.2L14.5 14.75L14.5 15.25L13.9 13.75L13.8 13.45L16.75 12.65" />
<linearGradient
id="LinearGradID_1942" gradientUnits="userSpaceOnUse" gradientTransform="matrix(0.000350952, -0.00544739, 0.0090332, 0.000564575, 16, 23)" spreadMethod ="pad" x1="-819.2" y1="0" x2="819.2" y2="0" >
<stop  offset="0" style="stop-color:#8C6813;stop-opacity:1" />
<stop  offset="0.886275" style="stop-color:#BC9F2E;stop-opacity:1" />
<stop  offset="1" style="stop-color:#6A550B;stop-opacity:1" />
</linearGradient>
<path style="fill:url(#LinearGradID_1942) " d="M19.25,23.45L19.3 23.8L20.45 30.05L11.5 24.3L11.55 24.1L14.5 20L14.5 15.25L14.65 15.2L16.5 20.5L19.25 23.45" />
<linearGradient
id="LinearGradID_1943" gradientUnits="userSpaceOnUse" gradientTransform="matrix(-0.00405884, -0.00617981, 0.00628662, -0.00413513, 15.05, 49.15)" spreadMethod ="pad" x1="-819.2" y1="0" x2="819.2" y2="0" >
<stop  offset="0" style="stop-color:#8C6813;stop-opacity:1" />
<stop  offset="0.886275" style="stop-color:#BC9F2E;stop-opacity:1" />
<stop  offset="1" style="stop-color:#6A550B;stop-opacity:1" />
</linearGradient>
<path style="fill:url(#LinearGradID_1943) " d="M15.25,56.5L6.8 57.15L7.6 50.6L10.25 51.25L13.25 48.25L11.9 44.8L14.25 46L22.85 46.7L23.25 49.6L15.25 56.5" />
<linearGradient
id="LinearGradID_1944" gradientUnits="userSpaceOnUse" gradientTransform="matrix(-0.00367737, -0.00909424, 0.00819397, -0.00331116, 14.25, 42.4)" spreadMethod ="pad" x1="-819.2" y1="0" x2="819.2" y2="0" >
<stop  offset="0" style="stop-color:#8C6813;stop-opacity:1" />
<stop  offset="0.886275" style="stop-color:#BC9F2E;stop-opacity:1" />
<stop  offset="1" style="stop-color:#6A550B;stop-opacity:1" />
</linearGradient>
<path style="fill:url(#LinearGradID_1944) " d="M7.6,50.6L8.5 43.5L11.5 40.25L11.75 36.75L13.5 39.5L22.3 42.55L22.85 46.7L14.25 46L11.9 44.8L13.25 48.25L10.25 51.25L7.6 50.6" />
<linearGradient
id="LinearGradID_1945" gradientUnits="userSpaceOnUse" gradientTransform="matrix(0.000549316, -0.00949097, 0.00697327, 0.000396729, 15.05, 30)" spreadMethod ="pad" x1="-819.2" y1="0" x2="819.2" y2="0" >
<stop  offset="0" style="stop-color:#8C6813;stop-opacity:1" />
<stop  offset="0.886275" style="stop-color:#BFB82B;stop-opacity:1" />
<stop  offset="1" style="stop-color:#6A550B;stop-opacity:1" />
</linearGradient>
<path style="fill:url(#LinearGradID_1945) " d="M9.6,35.75Q10.5 29.5 11.5 24.3L20.45 30.05L20.5 30.6L18.5 33.5L9.6 35.75" />
<linearGradient
id="LinearGradID_1946" gradientUnits="userSpaceOnUse" gradientTransform="matrix(-0.00196838, -0.00489807, 0.00730896, -0.00292969, 15.4, 37.05)" spreadMethod ="pad" x1="-819.2" y1="0" x2="819.2" y2="0" >
<stop  offset="0" style="stop-color:#8C6813;stop-opacity:1" />
<stop  offset="0.886275" style="stop-color:#BC9F2E;stop-opacity:1" />
<stop  offset="1" style="stop-color:#6A550B;stop-opacity:1" />
</linearGradient>
<path style="fill:url(#LinearGradID_1946) " d="M8.5,43.5L9.6 35.75L18.5 33.5L20.5 30.6L22.3 42.55L13.5 39.5L11.75 36.75L11.5 40.25L8.5 43.5" />
<linearGradient
id="LinearGradID_1947" gradientUnits="userSpaceOnUse" gradientTransform="matrix(0.000900269, -0.00984192, 0.0113068, 0.00105286, 17.15, 58)" spreadMethod ="pad" x1="-819.2" y1="0" x2="819.2" y2="0" >
<stop  offset="0" style="stop-color:#8C6813;stop-opacity:1" />
<stop  offset="0.886275" style="stop-color:#BC9F2E;stop-opacity:1" />
<stop  offset="1" style="stop-color:#6A550B;stop-opacity:1" />
</linearGradient>
<path style="fill:url(#LinearGradID_1947) " d="M6.55,59.7L6.55 59.45L6.8 57.15L15.25 56.5L23.25 49.6L24.35 59.45L25.25 68.25L12 63.25L6.55 59.7" />
<linearGradient
id="LinearGradID_1948" gradientUnits="userSpaceOnUse" gradientTransform="matrix(-0.00408936, -0.0169678, 0.012207, -0.00292969, 15.65, 70.2)" spreadMethod ="pad" x1="-819.2" y1="0" x2="819.2" y2="0" >
<stop  offset="0" style="stop-color:#8C6813;stop-opacity:1" />
<stop  offset="0.886275" style="stop-color:#BC9F2E;stop-opacity:1" />
<stop  offset="1" style="stop-color:#6A550B;stop-opacity:1" />
</linearGradient>
<path style="fill:url(#LinearGradID_1948) " d="M21.25,74.75L21.25 70L18.5 73.5L4.85 76.75L6.55 59.7L12 63.25L25.25 68.25L26.35 80.3L21.25 74.75" />
<linearGradient
id="LinearGradID_1949" gradientUnits="userSpaceOnUse" gradientTransform="matrix(0.0154114, 0, 0, 0.0149536, 15.1, 97.1)" spreadMethod ="pad" x1="-819.2" y1="0" x2="819.2" y2="0" >
<stop  offset="0" style="stop-color:#8C6813;stop-opacity:1" />
<stop  offset="0.886275" style="stop-color:#BFB82B;stop-opacity:1" />
<stop  offset="1" style="stop-color:#6A550B;stop-opacity:1" />
</linearGradient>
<path style="fill:url(#LinearGradID_1949) " d="M2.5,109.35Q2.95 101.05 3.55 93.2L9.45 89.8L7.65 84.85L11.5 88L27.2 91.1L27.75 98.4L2.5 109.35" />
<linearGradient
id="LinearGradID_1950" gradientUnits="userSpaceOnUse" gradientTransform="matrix(0.0144348, 0, 0, 0.0141602, 15.35, 81.6)" spreadMethod ="pad" x1="-819.2" y1="0" x2="819.2" y2="0" >
<stop  offset="0" style="stop-color:#8C6813;stop-opacity:1" />
<stop  offset="0.886275" style="stop-color:#BFB82B;stop-opacity:1" />
<stop  offset="1" style="stop-color:#6A550B;stop-opacity:1" />
</linearGradient>
<path style="fill:url(#LinearGradID_1950) " d="M26.35,80.3L27.2 91.1L11.5 88L7.65 84.85L9.45 89.8L3.55 93.2L4.85 76.75L18.5 73.5L21.25 70L21.25 74.75L26.35 80.3" />
<linearGradient
id="LinearGradID_1951" gradientUnits="userSpaceOnUse" gradientTransform="matrix(0.0178223, 0, 0, 0.0250854, 15.75, 135.85)" spreadMethod ="pad" x1="-819.2" y1="0" x2="819.2" y2="0" >
<stop  offset="0" style="stop-color:#8C6813;stop-opacity:1" />
<stop  offset="0.886275" style="stop-color:#9ABF2B;stop-opacity:1" />
<stop  offset="1" style="stop-color:#6A550B;stop-opacity:1" />
</linearGradient>
<path style="fill:url(#LinearGradID_1951) " d="M1.15,137.8L1.45 130.75L2.15 115.3L29.55 132.7L30.35 156.4L1.15 137.8" />
<linearGradient
id="LinearGradID_1952" gradientUnits="userSpaceOnUse" gradientTransform="matrix(0.0167236, 0, 0, 0.0209351, 15.85, 115.55)" spreadMethod ="pad" x1="-819.2" y1="0" x2="819.2" y2="0" >
<stop  offset="0" style="stop-color:#8C6813;stop-opacity:1" />
<stop  offset="0.886275" style="stop-color:#BFB82B;stop-opacity:1" />
<stop  offset="1" style="stop-color:#6A550B;stop-opacity:1" />
</linearGradient>
<path style="fill:url(#LinearGradID_1952) " d="M27.75,98.4L29.5 130.75L29.55 132.7L2.15 115.3L2.5 109.35L27.75 98.4" />
<linearGradient
id="LinearGradID_1953" gradientUnits="userSpaceOnUse" gradientTransform="matrix(0.0184937, 0, 0, 0.0252686, 15.65, 158.5)" spreadMethod ="pad" x1="-819.2" y1="0" x2="819.2" y2="0" >
<stop  offset="0" style="stop-color:#8C6813;stop-opacity:1" />
<stop  offset="0.886275" style="stop-color:#9ABF2B;stop-opacity:1" />
<stop  offset="1" style="stop-color:#6A550B;stop-opacity:1" />
</linearGradient>
<path style="fill:url(#LinearGradID_1953) " d="M30.35,156.4L30.6 166.75L30.7 171.5L30.8 179.2L18.6 171.5L11.15 166.75L0.5 159.85Q0.75 148.55 1.15 137.8L30.35 156.4" />
<linearGradient
id="LinearGradID_1954" gradientUnits="userSpaceOnUse" gradientTransform="matrix(0.0188599, 0, 0, 0.0194702, 15.45, 175.8)" spreadMethod ="pad" x1="-819.2" y1="0" x2="819.2" y2="0" >
<stop  offset="0" style="stop-color:#8C6813;stop-opacity:1" />
<stop  offset="0.886275" style="stop-color:#9ABF2B;stop-opacity:1" />
<stop  offset="1" style="stop-color:#6A550B;stop-opacity:1" />
</linearGradient>
<path style="fill:url(#LinearGradID_1954) " d="M11.15,166.75L18.6 171.5L30.8 179.2L30.9 191.75L0 191.75Q0.05 181.45 0.25 171.5L0.35 166.75L0.5 159.85L11.15 166.75" />
<path style="fill:none;stroke-width:1;stroke-linecap:round;stroke-linejoin:round;stroke-miterlimit:3;stroke:#585429;stroke-opacity:1" d="M12.55,0.55L15.45 8.5L15.45 8.4L16.05 10.25L16.75 12.65Q18 17.3 19.25 23.45L19.3 23.8L20.45 30.05L20.75 30.25L20.5 30.6L22.3 42.55L22.85 46.7L23.25 49.6L24.35 59.45L25.25 68.25L26.35 80.3L27.2 91.1L27.75 98.4L29.5 130.75L29.55 132.7L30.35 156.4L30.6 166.75L30.7 171.5L30.8 179.2L30.9 191.75L0 191.75Q0.05 181.45 0.25 171.5L0.35 166.75L0.5 159.85Q0.75 148.55 1.15 137.8L1.45 130.75L2.15 115.3L2.5 109.35Q2.95 101.05 3.55 93.2L4.85 76.75L6.55 59.7L6.55 59.45L6.8 57.15L7.6 50.6L8.5 43.5L9.6 35.75Q10.5 29.5 11.5 24.3L11.45 24.25L11.55 24.1Q12.7 18.25 13.9 13.75L13.8 13.45L11.25 3.25L13.15 6.2L12.55 0.55L12.5 0M16.05,10.25L15.45 8.5M13.15,6.2L14 7.5M14.65,15.2L14.5 14.75L14.5 15.25L13.9 13.75M14.5,15.25L14.5 20L11.55 24.1L11.5 24.3L20.45 30.05L20.5 30.6L18.5 33.5L9.6 35.75M14.65,15.2L16.5 20.5L19.25 23.45M13.8,13.45L16.75 12.65M22.3,42.55L13.5 39.5L11.75 36.75L11.5 40.25L8.5 43.5M22.85,46.7L14.25 46L11.9 44.8L13.25 48.25L10.25 51.25L7.6 50.6M6.8,57.15L15.25 56.5L23.25 49.6M25.25,68.25L12 63.25L6.55 59.7M27.2,91.1L11.5 88L7.65 84.85L9.45 89.8L3.55 93.2M4.85,76.75L18.5 73.5L21.25 70L21.25 74.75L26.35 80.3M29.55,132.7L2.15 115.3M30.8,179.2L18.6 171.5L11.15 166.75L0.5 159.85M1.15,137.8L30.35 156.4M2.5,109.35L27.75 98.4" />
</g>
</svg>
